X:1
T:Title
%%score 1 { 2 | 3 }
L:1/8
Q:1/4=100
M:4/4
K:F
V:1 treble nm="Grand Piano, Soprano"
V:2 bass nm="Choir Pad, No One Like the Savior"
V:3 bass 
V:1
 [Fc]2 [Fc]2 [Fd][Fc][CA][CF] | [FA]2 C2 [CF]2 [CF]>[CF] | [EG][EG][EG][FA] [GB][FA][EB][Ed] | %3
w: By~John~Robson~Sweney * * * * *|||
 [Fc]4 [FA]4 | [Fc]2 [Fc]2 [Fd][Fc][CA][CF] | [DF]2 [DB]2 [Fd]2 [Fd]>[Fd] | %6
w: |||
 [Fc][FA][Fc][FA] [EG][EB]D[CE] | [EG]4 [CF]2 F2 | [Fd]2 [DB]2 [DF][DB][Fc][Fd] | %9
w: |||
 [Fc]4 [FA]2 [Fc]>[Fc] | [Ec][EG][EG][FA] [GB][Ed][Ec][EB] | [FA]4 [Fc]2 [Fc]>[Fc] | %12
w: |||
 [Fd]2 [FB]2 [FG]2 [Fd]>[Fd] | [Fc]2 [FA]2 [CF]2 CC | [B,D][GB][FA][DG] [CF][CE][CD][CE] | %15
w: |||
 [CG]4 [CF]4- | [CF]4 z4 |] %17
w: ||
V:2
 A,2 A,2 B,A,F,A, | C2 A,2 A,2 A,>A, | CCCC CC[K:bass]G,B, | A,4 C4 | A,2 A,2 B,A,F,A, | %5
 B,2 F,2 B,2 B,>B, | A,CA,C B,G,F,G, | B,4 A,2 A,2 | B,2 F,2 B,B,A,B, | A,4 C2 A,>A, | %10
 G,[K:treble]CCC CCCC | C4[K:bass] A,2 A,>A, | B,2 D2 D2 B,>B, | A,2 C2 A,2 F,F, | %14
 F,DCB, A,G,F,G, | B,4 A,4- | A,4 z4 |] %17
V:3
 F,2 F,2 F,F, z F, | F,2 F,2 F,2 F,>F, | C,C,C,C, C,C,C,C, | F,4 F,4 | F,2 F,2 F,F, z F, | %5
 B,,2 B,,2 B,,2 B,,>B,, | C,C,C,C, C,C,C,C, | C,4 F,2 F,2 | B,,2 B,,2 B,,B,,F,F, | F,4 F,2 F,>F, | %10
 C,C,C,C, C,B,A,G, | F,4 F,2 F,>F, | B,,2 B,,2 B,,2 B,,>B,, | F,2 F,2 F,2 A,,A,, | %14
 B,,B,,B,,B,, C,C,C,C, | C,4 F,4- | F,4 z4 |] %17

